usr/share/icons/biglinux-icons-material/24/actions/text-field.svg

<svg xmlns="http://www.w3.org/2000/svg" viewBox="0 0 24 24"><path d="M4 4v1h2v14H4v1h5v-1H7V5h2V4H4zm5 12v2h11v-2h-1v1h-9v-1H9z" style="fill:currentColor;fill-opacity:1;stroke:none;color:#dedede"/></svg>

<svg xmlns="http://www.w3.org/2000/svg" viewBox="0 0 24 24">
  <defs id="defs3051">
    <style type="text/css" id="current-color-scheme">
      .ColorScheme-Text {
        color:#dedede;
      }
      </style>
  </defs>
 <path style="fill:currentColor;fill-opacity:1;stroke:none" 
     d="M 4 4 L 4 5 L 6 5 L 6 19 L 4 19 L 4 20 L 9 20 L 9 19 L 7 19 L 7 5 L 9 5 L 9 4 L 4 4 z M 9 16 L 9 18 L 10 18 L 19 18 L 20 18 L 20 17 L 20 16 L 19 16 L 19 17 L 10 17 L 10 16 L 9 16 z "
     class="ColorScheme-Text"
     />
</svg>
